assets/images/common/footer-icon.svg

<svg fill="none" height="44" viewBox="0 0 57 44" width="57" xmlns="http://www.w3.org/2000/svg" xmlns:xlink="http://www.w3.org/1999/xlink"><clipPath id="a"><path d="m0 0h56.6888v44h-56.6888z"/></clipPath><g clip-path="url(#a)" fill="#d5d933"><path d="m41.8191 16.0558c2.9444-3.3763 3.7934-7.53683 2.2676-11.12795-1.2212-2.87939-3.8359-4.762361-6.8226-4.914696-4.6725-.232249-7.432 2.789486-8.6807 4.652476-1.2486-1.86299-4.0081-4.88972-8.6806-4.652476-2.9868.152335-5.6015 2.035306-6.8251 4.914696-1.5234 3.59112-.6768 7.74915 2.2675 11.12795 2.1577 2.4749 4.8997 3.6411 7.3221 4.6725 2.325.9889 4.3328 1.8455 5.1195 3.5911.005.01.0125.0175.0175.025.0874.1748.2297.3246.4195.412.1174.0525.2398.0775.3596.0775.3322 0 .6518-.1923.7967-.5145.7866-1.7456 2.7945-2.5997 5.1194-3.5911 2.4199-1.0314 5.1645-2.1976 7.3221-4.6725zm-13.2357 6.2733c-1.2461-1.5084-3.1915-2.34-5.2318-3.2091-2.3575-1.0039-4.7948-2.0428-6.6878-4.2129-2.4948-2.8619-3.234-6.33569-1.9779-9.29499.974-2.29253 2.9568-3.73347 5.3043-3.85334 5.3617-.26971 7.6917 4.79233 7.7916 5.01459.015.03746.0325.06742.0499.0924.0899.14983.2223.2722.3921.34962.4395.19479.9565 0 1.1538-.44202.0974-.21477 2.4423-5.2843 7.7941-5.01459 2.3474.11987 4.3303 1.55832 5.3042 3.85334 1.2562 2.9593.517 6.43559-1.9778 9.29499-1.893 2.1701-4.3304 3.209-6.6878 4.2129-2.0403.8691-3.9857 1.7007-5.2319 3.2091z"/><path d="m54.3145 8.44378c-.6543-.1848-1.3511-.08991-1.9604.26721-.7767.45451-1.351 1.28361-1.5783 2.27251l-2.3 9.8194c-.8766-.1049-1.8805.2173-2.8694.964l-7.392 5.8886c-.6269.4995-1.0814 1.1688-1.3161 1.9354l-3.6661 12.0196c-.1723.5669-.0699 1.1662.2822 1.6432.3522.477.8941.7492 1.4884.7492h6.6254c.7367 0 1.4035-.437 1.6981-1.1138l2.5997-5.9811 8.1487-7.9014.0275-.0275c.8716-.924 1.426-2.1277 1.5583-3.3913l1.0139-13.5679c.1674-1.6682-.8416-3.19903-2.3574-3.57363zm.6168 3.40382-1.0139 13.5654c-.0949.874-.477 1.7056-1.0763 2.3474l-8.381 8.1288-2.7395 6.2982c-.0175.0374-.0525.0624-.0949.0624h-6.6254c-.0125 0-.0524 0-.0824-.0425-.0299-.0424-.02-.0799-.015-.0924l3.6661-12.0195c.1298-.427.3846-.7991.7317-1.0788l7.3745-5.8762c.2947-.2222.8991-.6193 1.441-.6193.2247 0 .4395.0674.6168.2447.5994.6668.1923 1.6932-.1598 2.0953l-5.1894 4.9796 1.2112 1.2611 5.2143-5.0021.04-.0399c.8516-.9265 1.4934-2.9568.2248-4.4203l2.4049-10.2664c.1173-.5144.402-.949.7591-1.1587.2023-.1199.4071-.1499.6069-.0924l.0424.01c.5869.1398 1.1363.8166 1.0439 1.7081z"/><path d="m19.7942 29.5885c-.2347-.7667-.6892-1.436-1.3161-1.9355l-7.412-5.9036c-.9789-.7367-1.97533-1.0563-2.85189-.949l-2.30001-9.8144c-.22726-.9914-.80413-1.8205-1.5783-2.27501-.60934-.35712-1.30609-.45201-1.96038-.26721-1.513368.37459-2.524777 1.90292-2.3574572 3.57112l1.0114072 13.5429v.025c.13486 1.2636.68676 2.4698 1.56082 3.3938l8.17621 7.929 2.5997 5.981c.2946.6768.9614 1.1138 1.6981 1.1138h6.6254c.5918 0 1.1362-.2722 1.4884-.7492.3521-.477.457-1.0738.2822-1.6432zm1.9779 12.6213c-.03.0425-.0699.0425-.0824.0425h-6.6254c-.0399 0-.0774-.025-.0949-.0625l-2.7395-6.2982-8.38097-8.1287c-.60185-.6418-.98144-1.4734-1.07634-2.3474l-1.01141-13.5404v-.025c-.0949-.8915.45451-1.5683 1.04138-1.7107l.04245-.0099c.19979-.0575.40456-.0275.60685.0924.35711.2097.6418.6418.76167 1.1612l2.40491 10.2639c-1.26863 1.4634-.62683 3.4938.22475 4.4203l5.25181 5.042 1.2112-1.2611-5.18938-4.9797c-.35212-.402-.75918-1.4284-.15983-2.0952.60685-.6043 1.64073.0599 2.0403.3596l7.39201 5.8887c.3496.2772.6019.6518.7342 1.0788l3.6661 12.0195s.0149.05-.015.0924z"/></g></svg>

<svg width="57" height="44" viewBox="0 0 57 44" fill="none" xmlns="http://www.w3.org/2000/svg">
<g clip-path="url(#clip0_347_7)">
<path d="M41.8191 16.0558C44.7635 12.6795 45.6125 8.51897 44.0867 4.92785C42.8655 2.04846 40.2508 0.165489 37.2641 0.013154C32.5916 -0.219095 29.8321 2.80264 28.5834 4.66563C27.3348 2.80264 24.5753 -0.22409 19.9028 0.013154C16.916 0.165489 14.3013 2.04846 13.0777 4.92785C11.5543 8.51897 12.4009 12.677 15.3452 16.0558C17.5029 18.5307 20.2449 19.6969 22.6673 20.7283C24.9923 21.7172 27.0001 22.5738 27.7868 24.3194C27.7918 24.3294 27.7993 24.3369 27.8043 24.3444C27.8917 24.5192 28.034 24.669 28.2238 24.7564C28.3412 24.8089 28.4636 24.8339 28.5834 24.8339C28.9156 24.8339 29.2352 24.6416 29.3801 24.3194C30.1667 22.5738 32.1746 21.7197 34.4995 20.7283C36.9194 19.6969 39.664 18.5307 41.8216 16.0558H41.8191ZM28.5834 22.3291C27.3373 20.8207 25.3919 19.9891 23.3516 19.12C20.9941 18.1161 18.5568 17.0772 16.6638 14.9071C14.169 12.0452 13.4298 8.57141 14.6859 5.61211C15.6599 3.31958 17.6427 1.87864 19.9902 1.75877C25.3519 1.48906 27.6819 6.5511 27.7818 6.77336C27.7968 6.81082 27.8143 6.84078 27.8317 6.86576C27.9216 7.01559 28.054 7.13796 28.2238 7.21538C28.6633 7.41017 29.1803 7.21538 29.3776 6.77336C29.475 6.55859 31.8199 1.48906 37.1717 1.75877C39.5191 1.87864 41.502 3.31709 42.4759 5.61211C43.7321 8.57141 42.9929 12.0477 40.4981 14.9071C38.6051 17.0772 36.1677 18.1161 33.8103 19.12C31.77 19.9891 29.8246 20.8207 28.5784 22.3291H28.5834Z" fill="#D5D933"/>
<path d="M54.3145 8.44378C53.6602 8.25898 52.9634 8.35387 52.3541 8.71099C51.5774 9.1655 51.0031 9.9946 50.7758 10.9835L48.4758 20.8029C47.5992 20.698 46.5953 21.0202 45.6064 21.7669L38.2144 27.6555C37.5875 28.155 37.133 28.8243 36.8983 29.5909L33.2322 41.6105C33.0599 42.1774 33.1623 42.7767 33.5144 43.2537C33.8666 43.7307 34.4085 44.0029 35.0028 44.0029H41.6282C42.3649 44.0029 43.0317 43.5659 43.3263 42.8891L45.926 36.908L54.0747 29.0066L54.1022 28.9791C54.9738 28.0551 55.5282 26.8514 55.6605 25.5878L56.6744 12.0199C56.8418 10.3517 55.8328 8.82087 54.317 8.44627L54.3145 8.44378ZM54.9313 11.8476L53.9174 25.413C53.8225 26.287 53.4404 27.1186 52.8411 27.7604L44.4601 35.8892L41.7206 42.1874C41.7031 42.2248 41.6681 42.2498 41.6257 42.2498H35.0003C34.9878 42.2498 34.9479 42.2498 34.9179 42.2073C34.888 42.1649 34.8979 42.1274 34.9029 42.1149L38.569 30.0954C38.6988 29.6684 38.9536 29.2963 39.3007 29.0166L46.6752 23.1404C46.9699 22.9182 47.5743 22.5211 48.1162 22.5211C48.3409 22.5211 48.5557 22.5885 48.733 22.7658C49.3324 23.4326 48.9253 24.459 48.5732 24.8611L43.3838 29.8407L44.595 31.1018L49.8093 26.0997L49.8493 26.0598C50.7009 25.1333 51.3427 23.103 50.0741 21.6395L52.479 11.3731C52.5963 10.8587 52.881 10.4241 53.2381 10.2144C53.4404 10.0945 53.6452 10.0645 53.845 10.122L53.8874 10.132C54.4743 10.2718 55.0237 10.9486 54.9313 11.8401V11.8476Z" fill="#D5D933"/>
<path d="M19.7942 29.5885C19.5595 28.8218 19.105 28.1525 18.4781 27.653L11.0661 21.7494C10.0872 21.0127 9.09077 20.6931 8.21421 20.8004L5.9142 10.986C5.68694 9.9946 5.11007 9.1655 4.3359 8.71099C3.72656 8.35387 3.02981 8.25898 2.37552 8.44378C0.862152 8.81837 -0.149257 10.3467 0.0180628 12.0149L1.02947 25.5578V25.5828C1.16433 26.8464 1.71623 28.0526 2.59029 28.9766L10.7665 36.9056L13.3662 42.8866C13.6608 43.5634 14.3276 44.0004 15.0643 44.0004H21.6897C22.2815 44.0004 22.8259 43.7282 23.1781 43.2512C23.5302 42.7742 23.6351 42.1774 23.4603 41.608L19.7942 29.5885ZM21.7721 42.2098C21.7421 42.2523 21.7022 42.2523 21.6897 42.2523H15.0643C15.0244 42.2523 14.9869 42.2273 14.9694 42.1898L12.2299 35.8916L3.84893 27.7629C3.24708 27.1211 2.86749 26.2895 2.77259 25.4155L1.76118 11.8751V11.8501C1.66628 10.9586 2.21569 10.2818 2.80256 10.1394L2.84501 10.1295C3.0448 10.072 3.24957 10.102 3.45186 10.2219C3.80897 10.4316 4.09366 10.8637 4.21353 11.3831L6.61844 21.647C5.34981 23.1104 5.99161 25.1408 6.84319 26.0673L12.095 31.1093L13.3062 29.8482L8.11682 24.8685C7.7647 24.4665 7.35764 23.4401 7.95699 22.7733C8.56384 22.169 9.59772 22.8332 9.99729 23.1329L17.3893 29.0216C17.7389 29.2988 17.9912 29.6734 18.1235 30.1004L21.7896 42.1199C21.7896 42.1199 21.8045 42.1699 21.7746 42.2123L21.7721 42.2098Z" fill="#D5D933"/>
</g>
<defs>
<clipPath id="clip0_347_7">
<rect width="56.6888" height="44" fill="white"/>
</clipPath>
</defs>
</svg>
